X:1
T:Echoes - Sullivan
T:#
%%score 1 2 3 4
L:1/8
Q:1/4=80
M:2/4
K:Eb
V:1 treble nm="Soprano" snm="S"
V:2 treble nm="Alto" snm="A"
V:3 treble-8 nm="Tenor" snm="T"
V:4 bass nm="Bass" snm="B"
V:1
"^Echoes""^Thomas Moore""^Allegretto" E | FE FE | (D/F/) (A/c/) BG | E2 FF | G4 | z2 z E | %6
w: How|sweet the an- swer|E\- * cho * makes To|mu- sic at|night,|When,|
 FE F"^Sir Arthur Sullivan\n(1842-1900)"E | (D/F/) (A/c/) B!<(!G | =AG AG!<)! | %9
w: rous'd by lute or|horn * she * wakes, And,|far a- way o'er|
 (^F/=A/) (c/e/) d!f! (B/c/) | d2 d2 | d4 | d2 d2 | (de =ef | B)B !>!B2- | BG AB | c2 c2 | %17
w: lawns * and * lakes, Goes *|an- sw'ring|light,|answ- 'ring|light! * * *|* How sweet|* the an- swer|E- cho|
 c3!>(! B | B2 AA | G3!>)!!p! .F | .F.E .F.E | (D/F/) (A/c/) B.F | .F.E .F.E | (D/F/) (A/c/) BD | %24
w: makes To|mu- sic at|night, When|rous'd by lute or|horn, * she * wakes, And,|far a- way o'er|lawns * and * lakes, Goes|
 (E/D/) (E/D/) (E/D/) (E/D/) | (EG B)d | e4 || z2 z!p! E | FE FE | (D/F/) (A/c/) BG | E2 F2 | G4 | %32
w: answ\- * 'ring * light, * Goes *|answ\- * * 'ring|light!|Yet|love hath e- choes|tru\- * er * far, And|far more|sweet|
 z2 z E | FE FE | (D/F/) (A/c/) BG |!<(! =AG AG | (^F/=A/) (c/e/) d!<)!!f! (B/c/) | d2 d2 | d3 d | %39
w: Than|e'er be- neath the|moon\- * light's * star, Of|horn, or lute, or|soft * gui\- * tar, The *|songs re-|peat, The|
 d2 d2 | (de =ef | B)B !>!B2- | BG AB | c2 c2 | c3 B |!>(! B2 A2 | G3!>)!!p! .F | .F.E .F.E | %48
w: songs re-|peat, * * *|* Yet love|* hath e- choes|tru- er|far, And|far more|sweet, Than|e'er be- neath the|
 (D/F/) (A/c/) B.F | .F.E .F.E | (D/F/) (A/c/) BD | (E/D/) (E/D/) (E/D/) (E/D/) | (EG B)d | e4 || %54
w: moon\- * light's * star, Of|horn or lute, or|soft * gui\- * tar, The|songs * re\- * peat, * The *|songs * * re-|peat.|
 z2!f! z E | F2 E2 | F3 E | (DF) (Ac) | B2!ff! G2 | E4 | F4 | G4 | z2!p! z E | FE FE | %64
w: 'Tis|when the|sigh in|youth * sin\- *|cere, and|on-|ly|then,|The|sigh that's breath'd for|
 (D/F/) (A/c/) BG | =A!<(!G AG | (^F/=A/) (c/e/) d!<)!!f! (B/c/) | d2 d2 | d3 D | d2 d2 | (de =ef | %71
w: one * to * hear Is|by that one, that|on\- * ly * dear, Breath'd *|back a-|gain, Breath'd|back a-|gain, * * *|
 B)B !>!B2- | BG AB | c2 c2 | c3!>(! B | B2 A2!>)! | G3!p! .F | .F.E .F.E | (D/F/) (A/c/) B.F | %79
w: * 'Tis when|* the sigh in|youth sin-|cere, And|on- ly|then, The|sigh that's breath'd for|one * to * hear Is|
 .F.E .F.E | (D/F/) (A/c/) BD |!pp! (E/D/) (E/D/) (E/D/) (E/D/) | EG BD | %83
w: by that one, that|on\- * ly * dear, Is|by * that * one, * that *|on- ly dear, Breath'd|
"^rall."[Q:1/4=77] (E/[Q:1/4=75]D/)[Q:1/4=74] (E/[Q:1/4=72]D/)[Q:1/4=71] (E/[Q:1/4=69]D/)[Q:1/4=68] (E/[Q:1/4=66]D/) | %84
w: back, * a\- * gain, * Breath'd *|
[Q:1/4=64] (E[Q:1/4=62]G[Q:1/4=59] B)[Q:1/4=57]d |[Q:1/4=56] e4 |] %86
w: back * * a-|gain.|
V:2
 B, | B,B, B,B, | B,D EE | B,2 DD | E4 | z2 z B, | B,B, B,B, | B,D E!<(!D | DD DD!<)! | D^F G z | %10
w: How|sweet the an- swer|E- cho makes To|mu- sic at|night,|When,|rous'd by lute or|horn she wakes, And,|far a- way o'er|lawns and lakes,|
 z!f! G GB | (^F/G/) (F/G/) =AF | GB GB | !courtesy!_AA AA | GG !>!G2- | GE EE | E2 E2 | E3!>(! C | %18
w: and, far a-|way * o'er * lawns and|lakes, Goes answ- 'ring|light, Goes answ- 'ring|light! How sweet|* the an- swer|E- cho|makes To|
 C2 CC | C3!>)!!p! .C | .B,.B, .B,.B, | B,B, B,.B, | .B,.B, .=A,.A, | !courtesy!_A,A, A,A, | %24
w: mu- sic at|night, When|rous'd by lute or|horn, she wakes, And,|far a- way o'er|lawns and lakes, Goes|
 G,C B,A | G2 F2 | E4 || z2 z!p! B, | B,B, B,B, | B,D EE | B,2 D2 | E4 | z2 z B, | B,B, B,B, | %34
w: answ- 'ring light, Goes|answ- 'ring|light!|Yet|love hath e- choes|tru- er far, And|far more|sweet|Than|e'er be- neath the|
 B,D ED |!<(! DD DD | D^F G!<)! z |!f! z G GB | (^F/G/ F/G/ =A)F | (GB) (GB) | (!courtesy!_A4 | %41
w: moon- light's star, Of|horn, or lute, or|soft gui- tar,|The songs re-|peat, * * * * The|songs * re\- *|peat,|
 G)G !>!G2- | GE EE | E2 E2 | E3 C |!>(! C2 C2 | C3!>)!!p! .C | .B,.B, .B,.B, | B,B, B,.B, | %49
w: * Yet love|* hath e- choes|tru- er|far, And|far more|sweet, Than|e'er be- neath the|moon- light's star, Of|
 .B,.B, .=A,.A, | !courtesy!_A,A, A,A, | G,C B,A | G2 F2 | E4 || z2!f! z B, | B,2 B,2 | B,3 B, | %57
w: horn or lute, or|soft gui- tar, The|songs re- peat, The|songs re-|peat.|'Tis|when the|sigh in|
 B,2 D2 | E2!ff! E2 | (B,2 E2- | E2) D2 | E4 | z2!p! z B, | B,B, B,B, | B,D ED | D!<(!D DD | %66
w: youth sin-|cere, and|on\- *|* ly|then,|The|sigh that's breath'd for|one to hear Is|by that one, that|
 D^F G!<)! z |!f! z G GB | (^F/G/ F/G/ =A)F | (GB) (GB) | (!courtesy!_A4 | G)G !>!G2- | GE EE | %73
w: on- ly dear,|Breath'd back a-|gain * * * * Breath'd|back * a\- *|gain,|* 'Tis when|* the sigh in|
 E2 E2 | E3!>(! C | C2 C2!>)! | C3!p! .C | .B,.B, .B,.B, | B,B, B,.B, | .B,.B, .=A,.A, | %80
w: youth sin-|cere, And|on- ly|then, The|sigh that's breath'd for|one to hear Is|by that one, that|
 !courtesy!_A,A, A,A, |!pp! G,C B,C | B,2 B,2 |"^rall." B,C B,A | G2 F2 | E4 |] %86
w: on- ly dear, Is|by that one, that|on- ly|dear, Breath'd back, Breath'd|back a-|gain.|
V:3
 G | AG AG | FA GB | G2 AB | B4 | z2 z G | AG AG | FA G!<(!B | cB cB!<)! | =AA B z | z!f! B BB | %11
w: How|sweet the an- swer|E- cho makes To|mu- sic at|night,|When,|rous'd by lute or|horn she wakes, And,|far a- way o'er|lawns and lakes,|and, far a-|
 cc cc | BB BB | (B/c/B/c/ B2) | z B !>!_d2- | d_d dd | c2 c2 | c3!>(! E | E2 EE | =E3!>)!!p! .F | %20
w: way o'er lawns and|lakes, Goes answ- 'ring|light! * * * *|How sweet|* the an- swer|E- cho|makes To|mu- sic at|night, When|
 .G.G .G.G | AA A.A | .G.G ._G.G | FF FF | EA Gc | B2 A2 | G4 || z2 z!p! G | AG AG | FA GB | %30
w: rous'd by lute or|horn, she wakes, And,|far a- way o'er|lawns and lakes, Goes|answ- 'ring light, Goes|answ- 'ring|light!|Yet|love hath e- choes|tru- er far, And|
 G2 A2 | B4 | z2 z G | AG AG | FA GB |!<(! cB cB | =AA B!<)! z |!f! z B BB | c3 c | B2 B2 | %40
w: far more|sweet|Than|e'er be- neath the|moon- light's star, Of|horn, or lute, or|soft gui- tar,|The songs re-|peat, The|songs re-|
 (B/c/B/c/ B2) | z B !>!_d2- | d_d dd | c2 c2 | c3 E |!>(! E2 E2 | =E3!>)!!p! .F | .G.G .G.G | %48
w: peat, * * * *|Yet love|* hath e- choes|tru- er|far, And|far more|sweet, Than|e'er be- neath the|
 AA A.A | .G.G ._G.G | FF FF | EA Gc | B2 A2 | G4 || z2!f! z G | A2 G2 | A3 G | F2 (FA) | %58
w: moon- light's star, Of|horn or lute, or|soft gui- tar, The|songs re- peat, The|songs re-|peat.|'Tis|when the|sigh in|youth sin\- *|
 G2!ff! B2 | G4 | A4 | (G2 B2) | z2!p! z G | AG AG | FA GB | c!<(!B cB | =AA B!<)! z |!f! z B BB | %68
w: cere, and|on-|ly|then, *|The|sigh that's breath'd for|one to hear Is|by that one, that|on- ly dear,|Breath'd back a-|
 c3 c | B2 B2 | (B/c/B/c/ B2) | z B !>!_d2- | d_d dd | c2 c2 | c3!>(! E | E2 E2!>)! | =E3!p! .F | %77
w: gain, Breath'd|back a-|gain * * * *|'Tis when|* the sigh in|youth sin-|cere, And|on- ly|then, The|
 .G.G .G.G | AA A.A | .G.G ._G.G | FF FF |!pp! EA GA | G2 A2 |"^rall." GA Gc | B2 A2 | G4 |] %86
w: sigh that's breath'd for|one to hear Is|by that one, that|on- ly dear, Is|by that one, that|on- ly|dear, Breath'd back, Breath'd|back a-|gain.|
V:4
 E, | E,E, E,E, | E,E, E,E, | B,,2 B,,B,, | E,4 | z2 z E, | E,E, E,E, | E,E, E,!<(!G, | %8
w: How|sweet the an- swer|E- cho makes To|mu- sic at|night,|When,|rous'd by lute or|horn she wakes, And,|
 G,G, G,G,!<)! | G,G, G, z | z!f! D, G,D, | =A,D, ^F,D, | G,D, G,D, | %13
w: far a- way o'er|lawns and lakes,|and, far a-|way o'er lawns and|lakes, Goes answ- 'ring|
 !courtesy!=F,E, !courtesy!=D,B,, | E,E, !>!E,2- | E,E, F,G, | A,2 A,2 | A,3!>(! A,, | %18
w: light, goes answ- 'ring|light! How sweet|* the an- swer|E- cho|makes To|
 A,,2 A,,A,, | A,,3!>)!!p! .A,, | .B,,.B,, .B,,.B,, | B,,B,, B,,.B,, | .B,,.B,, .B,,.B,, | %23
w: mu- sic at|night, When|rous'd by lute or|horn, she wakes, And,|far a- way o'er|
 B,,B,, B,,B,, | E,E, E,E, | E,2 E,2 | E,4 || z2 z!p! E, | E,E, E,E, | E,E, E,E, | B,,2 B,,2 | %31
w: lawns and lakes, Goes|answ- 'ring light, Goes|answ- 'ring|light!|Yet|love hath e- choes|tru- er far, And|far more|
 E,4 | z2 z E, | E,E, E,E, | E,E, E,G, |!<(! G,G, G,G, | G,G, G,!<)! z |!f! z D, G,D, | %38
w: sweet|Than|e'er be- neath the|moon- light's star, Of|horn, or lute, or|soft gui- tar,|The songs re-|
 =A,D, ^F,D, | (G,D,) (G,D,) | (!courtesy!=F,E,!courtesy!=D,B,, | E,)E, !>!E,2- | E,E, F,G, | %43
w: peat, re- peat, The|songs * re\- *|peat, * * *|* Yet love|* hath e- choes|
 A,2 A,2 | A,3 A,, |!>(! A,,2 A,,2 | A,,3!>)!!p! .A,, | .B,,.B,, .B,,.B,, | B,,B,, B,,.B,, | %49
w: tru- er|far, And|far more|sweet, Than|e'er be- neath the|moon- light's star, Of|
 .B,,.B,, .B,,.B,, | B,,B,, B,,B,, | E,E, E,E, | E,2 E,2 | E,4 || z2!f! z E, | E,2 E,2 | E,3 E, | %57
w: horn or lute, or|soft gui- tar, The|songs re- peat, The|songs re-|peat.|'Tis|when the|sigh in|
 E,2 E,2 | E,2!ff! E,2 | B,,4 | B,,4 | E,4 | z2!p! z E, | E,E, E,E, | E,E, E,G, | G,!<(!G, G,G, | %66
w: youth sin-|cere, and|on-|ly|then,|The|sigh that's breath'd for|one to hear Is|by that one, that|
 G,G, G,!<)! z |!f! z D, G,D, | =A,D, ^F,D, | (G,D,) (G,D,) | (!courtesy!=F,E,!courtesy!=D,B,, | %71
w: on- ly dear,|Breath'd back a-|gain, a- gain, Breath'd|back * a\- *|gain, * * *|
 E,)E, !>!E,2- | E,E, F,G, | A,2 A,2 | A,3!>(! A,, | A,,2 A,,2!>)! | A,,3!p! .A,, | %77
w: * 'Tis when|* the sigh in|youth sin-|cere, And|on- ly|then, The|
 .B,,.B,, .B,,.B,, | B,,B,, B,,.B,, | .B,,.B,, .B,,.B,, | B,,B,, B,,B,, |!pp! E,E, E,E, | E,2 E,2 | %83
w: sigh that's breath'd for|one to hear Is|by that one, that|on- ly dear, Is|by that one, that|on- ly|
"^rall." E,E, E,E, | E,2 E,2 | [E,,E,]4 |] %86
w: dear, Breath'd back, Breath'd|back a-|gain.|

